X: 29041
T: Needle At The Bottom Of The Sea, The
R: slide
M: 12/8
K: Dmajor
|:A|"D"def e2d"G"B3 B2A|"Em"Bcd BAF"A"E3 E2A|
"D"def e2d"G"B3 B2A|"Em"Bcd "A"BAF "D"D3 D2:|
E|:"D"F3 FED"Em"G3 GFE|"F#m"A3 ABc "G" ded BAG|
"D"F3 FED"G"G3 GFE|1 "A"ABA ABc"D"d3 BAG:|2 "A"ABA ABc "D"d3 d2||

